flaticon/office/desk-chair.svg

<svg xmlns="http://www.w3.org/2000/svg" width="32" height="32" viewBox="0 0 24 24">
    <path d="M 20.398438 7.601562 L 18.800781 7.601562 C 18.558594 7.601562 18.398438 7.761719 18.398438 8 L 18.398438 9.601562 C 18.398438 9.839844 18.558594 10 18.800781 10 L 19.199219 10 L 19.199219 12 C 19.199219 12.390625 18.914062 12.71875 18.539062 12.785156 C 18.183594 12.285156 17.511719 12 16.878906 12 L 12.398438 12 L 12.398438 11.199219 L 14.921875 11.199219 C 15.519531 11.199219 16.078125 10.960938 16.519531 10.519531 C 16.921875 10.078125 17.160156 9.480469 17.121094 8.878906 L 16.878906 2.121094 C 16.800781 0.921875 15.839844 0 14.640625 0 L 9.359375 0 C 8.160156 0 7.160156 0.921875 7.121094 2.121094 L 6.878906 8.878906 C 6.839844 9.519531 7.039062 10.078125 7.480469 10.519531 C 7.878906 10.960938 8.480469 11.199219 9.078125 11.199219 L 11.601562 11.199219 L 11.601562 12 L 7.199219 12 C 6.503906 12 5.808594 12.269531 5.449219 12.785156 C 5.082031 12.714844 4.800781 12.390625 4.800781 12 L 4.800781 10 L 5.199219 10 C 5.441406 10 5.601562 9.839844 5.601562 9.601562 L 5.601562 8 C 5.601562 7.761719 5.441406 7.601562 5.199219 7.601562 L 3.601562 7.601562 C 3.359375 7.601562 3.199219 7.761719 3.199219 8 L 3.199219 9.601562 C 3.199219 9.839844 3.359375 10 3.601562 10 L 4 10 L 4 12 C 4 12.742188 4.511719 13.371094 5.203125 13.550781 C 5.199219 13.566406 5.199219 13.582031 5.199219 13.601562 C 5.199219 15.382812 8.820312 15.84375 10.800781 15.960938 L 10.800781 17.199219 L 11.601562 17.199219 L 11.601562 18 L 10.800781 18 L 10.800781 18.464844 L 5.878906 19.601562 C 5.679688 19.640625 5.558594 19.878906 5.601562 20.078125 L 5.601562 20.410156 C 4.695312 20.507812 4 21.269531 4 22.199219 C 4 23.199219 4.800781 24 5.800781 24 C 6.800781 24 7.601562 23.199219 7.601562 22.199219 C 7.601562 21.410156 7.101562 20.746094 6.398438 20.5 L 6.398438 20.328125 L 10.800781 19.3125 L 10.800781 19.441406 L 9.839844 20.402344 C 9.824219 20.402344 9.8125 20.398438 9.800781 20.398438 C 8.800781 20.398438 8 21.199219 8 22.199219 C 8 23.199219 8.800781 24 9.800781 24 C 10.800781 24 11.601562 23.199219 11.601562 22.199219 C 11.601562 21.535156 11.246094 20.957031 10.714844 20.644531 L 11.359375 20 L 12.640625 20 L 13.285156 20.644531 C 12.753906 20.957031 12.398438 21.535156 12.398438 22.199219 C 12.398438 23.199219 13.199219 24 14.199219 24 C 15.199219 24 16 23.199219 16 22.199219 C 16 21.199219 15.199219 20.398438 14.199219 20.398438 C 14.1875 20.398438 14.175781 20.402344 14.160156 20.402344 L 13.199219 19.441406 L 13.199219 19.3125 L 17.601562 20.324219 L 17.601562 20.5 C 16.898438 20.746094 16.398438 21.410156 16.398438 22.199219 C 16.398438 23.199219 17.199219 24 18.199219 24 C 19.199219 24 20 23.199219 20 22.199219 C 20 21.269531 19.304688 20.507812 18.398438 20.410156 L 18.398438 20.078125 C 18.410156 20.027344 18.40625 19.972656 18.394531 19.921875 C 18.371094 19.78125 18.285156 19.675781 18.160156 19.628906 C 18.132812 19.613281 18.105469 19.605469 18.078125 19.601562 L 13.199219 18.472656 L 13.199219 18 L 12.398438 18 L 12.398438 17.199219 L 13.199219 17.199219 L 13.199219 15.960938 C 15.179688 15.84375 18.800781 15.382812 18.800781 13.601562 C 18.800781 13.582031 18.800781 13.566406 18.796875 13.550781 C 19.488281 13.371094 20 12.742188 20 12 L 20 10 L 20.398438 10 C 20.640625 10 20.800781 9.839844 20.800781 9.601562 L 20.800781 8 C 20.800781 7.761719 20.640625 7.601562 20.398438 7.601562 Z M 9.121094 10.398438 C 8.71875 10.398438 8.359375 10.238281 8.078125 9.960938 C 7.800781 9.679688 7.679688 9.320312 7.679688 8.921875 L 7.921875 2.160156 C 7.960938 1.398438 8.601562 0.800781 9.359375 0.800781 L 14.640625 0.800781 C 15.398438 0.800781 16.039062 1.398438 16.078125 2.160156 L 16.359375 8.921875 C 16.359375 9.320312 16.238281 9.679688 15.960938 9.960938 C 15.679688 10.238281 15.320312 10.398438 14.921875 10.398438 Z M 4 8.398438 L 4.800781 8.398438 L 4.800781 9.199219 L 4 9.199219 Z M 6.800781 22.199219 C 6.800781 22.761719 6.359375 23.199219 5.800781 23.199219 C 5.238281 23.199219 4.800781 22.761719 4.800781 22.199219 C 4.800781 21.640625 5.238281 21.199219 5.800781 21.199219 C 6.359375 21.199219 6.800781 21.640625 6.800781 22.199219 Z M 9.800781 23.199219 C 9.238281 23.199219 8.800781 22.761719 8.800781 22.199219 C 8.800781 21.640625 9.238281 21.199219 9.800781 21.199219 C 10.359375 21.199219 10.800781 21.640625 10.800781 22.199219 C 10.800781 22.761719 10.359375 23.199219 9.800781 23.199219 Z M 15.199219 22.199219 C 15.199219 22.761719 14.761719 23.199219 14.199219 23.199219 C 13.640625 23.199219 13.199219 22.761719 13.199219 22.199219 C 13.199219 21.640625 13.640625 21.199219 14.199219 21.199219 C 14.761719 21.199219 15.199219 21.640625 15.199219 22.199219 Z M 19.199219 22.199219 C 19.199219 22.761719 18.761719 23.199219 18.199219 23.199219 C 17.640625 23.199219 17.199219 22.761719 17.199219 22.199219 C 17.199219 21.640625 17.640625 21.199219 18.199219 21.199219 C 18.761719 21.199219 19.199219 21.640625 19.199219 22.199219 Z M 11.601562 18.800781 L 12.394531 18.800781 C 12.394531 18.816406 12.398438 18.832031 12.398438 18.847656 L 12.398438 19.199219 L 11.601562 19.199219 Z M 12.398438 16 L 12.398438 16.398438 L 11.601562 16.398438 L 11.601562 16 Z M 12 15.199219 C 9.121094 15.199219 6 14.558594 6 13.601562 C 6 13.078125 6.601562 12.800781 7.199219 12.800781 L 16.878906 12.800781 C 17.359375 12.800781 18 13.078125 18 13.601562 C 18 14.558594 14.878906 15.199219 12 15.199219 Z M 20 9.199219 L 19.199219 9.199219 L 19.199219 8.398438 L 20 8.398438 Z M 20 9.199219"/>
</svg>

<svg xmlns="http://www.w3.org/2000/svg" width="32" height="32" viewBox="0 0 24 24">
    <path d="M20.398 7.602h-1.597c-.242 0-.403.16-.403.398v1.602c0 .238.16.398.403.398h.398v2a.8.8 0 0 1-.66.785c-.355-.5-1.027-.785-1.66-.785h-4.48v-.8h2.523c.598 0 1.156-.24 1.598-.68.402-.442.64-1.04.601-1.641L16.88 2.12C16.8.921 15.839 0 14.64 0H9.359C8.16 0 7.16.922 7.121 2.121L6.88 8.88c-.04.64.16 1.2.601 1.64.399.442 1 .68 1.598.68h2.524V12H7.199c-.695 0-1.39.27-1.75.785A.8.8 0 0 1 4.801 12v-2h.398c.242 0 .403-.16.403-.398V8c0-.238-.16-.398-.403-.398H3.602c-.243 0-.403.16-.403.398v1.602c0 .238.16.398.403.398H4v2c0 .742.512 1.371 1.203 1.55-.004.016-.004.032-.004.052 0 1.78 3.621 2.242 5.602 2.359v1.238h.8V18h-.8v.465l-4.922 1.137c-.2.039-.32.277-.277.476v.332A1.793 1.793 0 0 0 4 22.2c0 1 .8 1.8 1.8 1.8s1.802-.8 1.802-1.8c0-.79-.5-1.454-1.204-1.7v-.172l4.403-1.015v.128l-.961.961c-.016 0-.027-.004-.04-.004-1 0-1.8.801-1.8 1.801C8 23.2 8.8 24 9.8 24s1.802-.8 1.802-1.8c0-.665-.356-1.243-.887-1.555l.644-.645h1.282l.644.645c-.531.312-.887.89-.887 1.554 0 1 .801 1.801 1.801 1.801 1 0 1.801-.8 1.801-1.8s-.8-1.802-1.8-1.802c-.012 0-.024.004-.04.004l-.96-.96v-.13l4.402 1.012v.176a1.794 1.794 0 0 0-1.204 1.7c0 1 .801 1.8 1.801 1.8 1 0 1.801-.8 1.801-1.8 0-.93-.695-1.692-1.602-1.79v-.332a.352.352 0 0 0-.003-.156.366.366 0 0 0-.235-.293.226.226 0 0 0-.082-.027l-4.879-1.13V18h-.8v-.8h.8v-1.24c1.98-.116 5.602-.577 5.602-2.358 0-.02 0-.036-.004-.051A1.608 1.608 0 0 0 20 12v-2h.398c.243 0 .403-.16.403-.398V8c0-.238-.16-.398-.403-.398zM9.121 10.398c-.402 0-.762-.16-1.043-.437-.277-.281-.398-.64-.398-1.04l.242-6.76C7.96 1.397 8.602.8 9.359.8h5.282c.757 0 1.398.597 1.437 1.36l.281 6.76c0 .4-.12.759-.398 1.04-.281.277-.64.437-1.04.437zM4 8.398h.8V9.2H4zM6.8 22.2a.99.99 0 0 1-1 1c-.562 0-1-.437-1-1 0-.558.438-1 1-1 .56 0 1 .442 1 1zm3 1c-.562 0-1-.437-1-1 0-.558.438-1 1-1 .56 0 1 .442 1 1a.99.99 0 0 1-1 1zm5.4-1c0 .563-.438 1-1 1a.99.99 0 0 1-1-1c0-.558.44-1 1-1a.99.99 0 0 1 1 1zm4 0c0 .563-.438 1-1 1a.99.99 0 0 1-1-1c0-.558.44-1 1-1a.99.99 0 0 1 1 1zm-7.598-3.398h.793c0 .015.003.031.003.047v.351h-.796zM12.398 16v.398h-.796V16zM12 15.2c-2.879 0-6-.641-6-1.598 0-.524.602-.801 1.2-.801h9.679c.48 0 1.121.277 1.121.8 0 .958-3.121 1.598-6 1.598zm8-6h-.8v-.802h.8zm0 0"/>
</svg>
